dji-master/img/icons/send-ok.svg

<svg width="40" height="40" viewBox="0 0 40 40" fill="none" xmlns="http://www.w3.org/2000/svg">
<rect opacity="0.6" x="1" y="1" width="38" height="38" rx="4" fill="white" stroke="#4FAD03" stroke-width="2"/>
<path d="M29.6496 16.1741C29.6496 15.8951 29.5379 15.6161 29.3371 15.4152L27.8192 13.8973C27.6183 13.6964 27.3393 13.5848 27.0603 13.5848C26.7813 13.5848 26.5022 13.6964 26.3013 13.8973L18.9799 21.2299L15.6987 17.9375C15.4978 17.7366 15.2188 17.625 14.9397 17.625C14.6607 17.625 14.3817 17.7366 14.1808 17.9375L12.6629 19.4554C12.4621 19.6562 12.3504 19.9353 12.3504 20.2143C12.3504 20.4933 12.4621 20.7723 12.6629 20.9732L16.7031 25.0134L18.221 26.5312C18.4219 26.7321 18.7009 26.8438 18.9799 26.8438C19.2589 26.8438 19.5379 26.7321 19.7388 26.5312L21.2567 25.0134L29.3371 16.933C29.5379 16.7321 29.6496 16.4531 29.6496 16.1741Z" fill="#4FAD03"/>
</svg>

<svg width="40" height="40" fill="none" xmlns="http://www.w3.org/2000/svg"><rect opacity=".6" x="1" y="1" width="38" height="38" rx="4" fill="#fff" stroke="#4FAD03" stroke-width="2"/><path d="M29.65 16.174c0-.279-.112-.558-.313-.759l-1.518-1.518a1.083 1.083 0 00-1.518 0L18.98 21.23l-3.281-3.293a1.082 1.082 0 00-1.518 0l-1.518 1.518a1.083 1.083 0 000 1.518l4.04 4.04 1.518 1.518a1.081 1.081 0 001.518 0l1.518-1.518 8.08-8.08c.2-.2.313-.48.313-.759z" fill="#4FAD03"/></svg>
